X: 64
T: Hempua
O: Finland
S: printed copy of unknown origin
Z: 2013 John Chambers <jc:trillian.mit.edu>
M: 2/4
L: 1/16
K: C
|: g2ga g2gf | e2c2 c2e2 | g2fg f2e2 | d4 d4 :|
|: d2de d2e2 | d2B2 G2d2 | f2df e2d2 | c4 c4 :|
